landing/bg.svg

<?xml version="1.0" encoding="utf-8"?>
<!-- Generator: Adobe Illustrator 16.0.3, SVG Export Plug-In . SVG Version: 6.00 Build 0)  -->
<!DOCTYPE svg PUBLIC "-//W3C//DTD SVG 1.1//EN" "http://www.w3.org/Graphics/SVG/1.1/DTD/svg11.dtd">
<svg version="1.1" id="Capa_1" xmlns="http://www.w3.org/2000/svg" xmlns:xlink="http://www.w3.org/1999/xlink" x="0px" y="0px"
	 width="1278px" height="612px" viewBox="0 0 1278 612" enable-background="new 0 0 1278 612" xml:space="preserve">
<rect x="0" fill="#008BC7" width="1278" height="612"/>
<circle fill="#FFFFFF" fill-opacity="0.03" cx="985.5" cy="343.5" r="194.5"/>
<circle fill="#FFFFFF" fill-opacity="0.06" cx="892" cy="286" r="154"/>
<path fill="#C4C4C4" fill-opacity="0.23" d="M1138,376h39c1.104,0,2,0.896,2,2l0,0c0,1.104-0.896,2-2,2h-39c-1.105,0-2-0.896-2-2
	l0,0C1136,376.896,1136.895,376,1138,376z"/>
<path fill="#C4C4C4" fill-opacity="0.23" d="M1138,266h68c1.104,0,2,0.896,2,2l0,0c0,1.104-0.896,2-2,2h-68c-1.105,0-2-0.896-2-2
	l0,0C1136,266.896,1136.895,266,1138,266z"/>
<path fill="#C4C4C4" fill-opacity="0.23" d="M1184,316h30c1.104,0,2,0.896,2,2l0,0c0,1.104-0.896,2-2,2h-30c-1.105,0-2-0.896-2-2
	l0,0C1182,316.896,1182.895,316,1184,316z"/>
<circle fill="#C4C4C4" fill-opacity="0.17" cx="721.5" cy="229.5" r="2.5"/>
<circle fill="#C4C4C4" fill-opacity="0.17" cx="1136.5" cy="225.5" r="5.5"/>
<circle fill="#C4C4C4" fill-opacity="0.17" cx="705.5" cy="290.5" r="5.5"/>
<circle fill="#C4C4C4" fill-opacity="0.17" cx="1181.5" cy="236.5" r="3.5"/>
<path fill="#C4C4C4" fill-opacity="0.23" d="M766,139h89c1.104,0,2,0.896,2,2l0,0c0,1.104-0.896,2-2,2h-89c-1.105,0-2-0.896-2-2l0,0
	C764,139.896,764.895,139,766,139z"/>
<path fill="#C4C4C4" fill-opacity="0.23" d="M733,177h39c1.104,0,2,0.896,2,2l0,0c0,1.104-0.896,2-2,2h-39c-1.105,0-2-0.896-2-2l0,0
	C731,177.896,731.895,177,733,177z"/>
<path fill="#C4C4C4" fill-opacity="0.23" d="M721,272h61c1.104,0,2,0.896,2,2l0,0c0,1.104-0.896,2-2,2h-61c-1.105,0-2-0.896-2-2l0,0
	C719,272.896,719.895,272,721,272z"/>
<path fill="#C4C4C4" fill-opacity="0.23" d="M721,177h4c1.104,0,2,0.896,2,2l0,0c0,1.104-0.896,2-2,2h-4c-1.105,0-2-0.896-2-2l0,0
	C719,177.896,719.895,177,721,177z"/>
<path fill="#C4C4C4" fill-opacity="0.23" d="M1187,376h4c1.104,0,2,0.896,2,2l0,0c0,1.104-0.896,2-2,2h-4c-1.105,0-2-0.896-2-2l0,0
	C1185,376.896,1185.895,376,1187,376z"/>
<path fill="#7A6FD3" d="M754.888,140.268c0.205,0,0.378,0.07,0.518,0.21c0.141,0.131,0.21,0.299,0.21,0.504s-0.069,0.378-0.21,0.518
	c-0.14,0.14-0.313,0.21-0.518,0.21h-1.96v1.974c0,0.205-0.07,0.378-0.21,0.518c-0.141,0.131-0.313,0.196-0.519,0.196
	s-0.378-0.065-0.518-0.196c-0.141-0.14-0.21-0.313-0.21-0.518v-1.974h-1.96c-0.205,0-0.378-0.07-0.519-0.21
	c-0.14-0.14-0.21-0.313-0.21-0.518s0.07-0.373,0.21-0.504c0.141-0.14,0.313-0.21,0.519-0.21h1.96v-1.974
	c0-0.205,0.069-0.378,0.21-0.518c0.14-0.14,0.313-0.21,0.518-0.21s0.378,0.07,0.519,0.21c0.14,0.14,0.21,0.313,0.21,0.518v1.974
	H754.888z"/>
<path fill="#7A6FD3" d="M801.584,119.656c0.151,0.176,0.228,0.36,0.228,0.552c0,0.232-0.092,0.436-0.276,0.612
	c-0.176,0.168-0.38,0.252-0.611,0.252c-0.24,0-0.444-0.1-0.612-0.3l-2.256-2.76l-2.28,2.76c-0.176,0.2-0.38,0.3-0.612,0.3
	c-0.224,0-0.428-0.084-0.611-0.252c-0.177-0.176-0.265-0.38-0.265-0.612c0-0.2,0.072-0.384,0.217-0.552l2.46-2.928l-2.376-2.844
	c-0.152-0.176-0.229-0.36-0.229-0.552c0-0.232,0.088-0.432,0.264-0.6c0.185-0.176,0.389-0.264,0.612-0.264
	c0.24,0,0.448,0.104,0.624,0.313l2.196,2.652l2.172-2.652c0.176-0.208,0.384-0.313,0.624-0.313c0.224,0,0.424,0.088,0.6,0.264
	c0.185,0.168,0.276,0.368,0.276,0.6c0,0.2-0.072,0.384-0.216,0.552l-2.376,2.844L801.584,119.656z"/>
<path fill="#7A6FD3" d="M1161.85,320.432c0.18,0.205,0.26,0.42,0.26,0.645c0,0.271-0.1,0.509-0.32,0.714
	c-0.199,0.196-0.439,0.294-0.71,0.294c-0.279,0-0.52-0.117-0.72-0.35l-2.63-3.221l-2.66,3.221c-0.2,0.232-0.439,0.35-0.71,0.35
	c-0.26,0-0.5-0.098-0.72-0.294c-0.2-0.205-0.3-0.442-0.3-0.714c0-0.233,0.08-0.448,0.25-0.645l2.869-3.416l-2.77-3.317
	c-0.18-0.205-0.27-0.421-0.27-0.644c0-0.271,0.1-0.505,0.31-0.701c0.21-0.205,0.45-0.308,0.71-0.308c0.28,0,0.52,0.121,0.73,0.364
	l2.56,3.094l2.54-3.094c0.2-0.243,0.439-0.364,0.72-0.364c0.271,0,0.5,0.103,0.7,0.308c0.22,0.196,0.33,0.43,0.33,0.701
	c0,0.232-0.09,0.447-0.26,0.644l-2.771,3.317L1161.85,320.432z"/>
<path fill="#8A7FE3" d="M768.056,202.104c0.101,0.117,0.151,0.24,0.151,0.368c0,0.155-0.061,0.291-0.184,0.408
	c-0.117,0.112-0.253,0.168-0.408,0.168c-0.16,0-0.296-0.067-0.408-0.2l-1.504-1.84l-1.52,1.84c-0.117,0.133-0.253,0.2-0.408,0.2
	c-0.148,0-0.285-0.056-0.408-0.168c-0.117-0.117-0.176-0.253-0.176-0.408c0-0.133,0.048-0.256,0.145-0.368l1.64-1.952l-1.584-1.896
	c-0.101-0.117-0.152-0.24-0.152-0.368c0-0.155,0.06-0.288,0.177-0.4c0.122-0.117,0.259-0.176,0.407-0.176
	c0.16,0,0.299,0.069,0.416,0.208l1.464,1.768l1.448-1.768c0.117-0.139,0.256-0.208,0.416-0.208c0.149,0,0.283,0.059,0.4,0.176
	c0.123,0.112,0.184,0.245,0.184,0.4c0,0.133-0.048,0.256-0.144,0.368l-1.584,1.896L768.056,202.104z"/>
</svg>

<svg width="1278" height="612" viewBox="0 0 1278 612" fill="none" xmlns="http://www.w3.org/2000/svg">
<rect width="1278" height="612" fill="url(#paint0_linear)"/>
<circle cx="985.5" cy="343.5" r="194.5" fill="white" fill-opacity="0.03"/>
<circle cx="892" cy="286" r="154" fill="white" fill-opacity="0.06"/>
<rect x="1136" y="376" width="43" height="4" rx="2" fill="#C4C4C4" fill-opacity="0.23"/>
<rect x="1136" y="266" width="72" height="4" rx="2" fill="#C4C4C4" fill-opacity="0.23"/>
<rect x="1182" y="316" width="34" height="4" rx="2" fill="#C4C4C4" fill-opacity="0.23"/>
<circle cx="721.5" cy="229.5" r="2.5" fill="#C4C4C4" fill-opacity="0.17"/>
<circle cx="1136.5" cy="225.5" r="5.5" fill="#C4C4C4" fill-opacity="0.17"/>
<circle cx="705.5" cy="290.5" r="5.5" fill="#C4C4C4" fill-opacity="0.17"/>
<circle r="3.5" transform="matrix(-1 0 0 1 1181.5 236.5)" fill="#C4C4C4" fill-opacity="0.17"/>
<rect x="764" y="139" width="93" height="4" rx="2" fill="#C4C4C4" fill-opacity="0.23"/>
<rect x="731" y="177" width="43" height="4" rx="2" fill="#C4C4C4" fill-opacity="0.23"/>
<rect x="719" y="272" width="65" height="4" rx="2" fill="#C4C4C4" fill-opacity="0.23"/>
<rect x="719" y="177" width="8" height="4" rx="2" fill="#C4C4C4" fill-opacity="0.23"/>
<rect x="1185" y="376" width="8" height="4" rx="2" fill="#C4C4C4" fill-opacity="0.23"/>
<path d="M754.888 140.268C755.093 140.268 755.266 140.338 755.406 140.478C755.546 140.609 755.616 140.777 755.616 140.982C755.616 141.187 755.546 141.36 755.406 141.5C755.266 141.64 755.093 141.71 754.888 141.71H752.928V143.684C752.928 143.889 752.858 144.062 752.718 144.202C752.578 144.333 752.405 144.398 752.2 144.398C751.995 144.398 751.822 144.333 751.682 144.202C751.542 144.062 751.472 143.889 751.472 143.684V141.71H749.512C749.307 141.71 749.134 141.64 748.994 141.5C748.854 141.36 748.784 141.187 748.784 140.982C748.784 140.777 748.854 140.609 748.994 140.478C749.134 140.338 749.307 140.268 749.512 140.268H751.472V138.294C751.472 138.089 751.542 137.916 751.682 137.776C751.822 137.636 751.995 137.566 752.2 137.566C752.405 137.566 752.578 137.636 752.718 137.776C752.858 137.916 752.928 138.089 752.928 138.294V140.268H754.888Z" fill="#7A6FD3"/>
<path d="M801.584 119.656C801.736 119.832 801.812 120.016 801.812 120.208C801.812 120.44 801.72 120.644 801.536 120.82C801.36 120.988 801.156 121.072 800.924 121.072C800.684 121.072 800.48 120.972 800.312 120.772L798.056 118.012L795.776 120.772C795.6 120.972 795.396 121.072 795.164 121.072C794.94 121.072 794.736 120.988 794.552 120.82C794.376 120.644 794.288 120.44 794.288 120.208C794.288 120.008 794.36 119.824 794.504 119.656L796.964 116.728L794.588 113.884C794.436 113.708 794.36 113.524 794.36 113.332C794.36 113.1 794.448 112.9 794.624 112.732C794.808 112.556 795.012 112.468 795.236 112.468C795.476 112.468 795.684 112.572 795.86 112.78L798.056 115.432L800.228 112.78C800.404 112.572 800.612 112.468 800.852 112.468C801.076 112.468 801.276 112.556 801.452 112.732C801.636 112.9 801.728 113.1 801.728 113.332C801.728 113.532 801.656 113.716 801.512 113.884L799.136 116.728L801.584 119.656Z" fill="#7A6FD3"/>
<path d="M1161.85 320.432C1162.03 320.637 1162.11 320.852 1162.11 321.076C1162.11 321.347 1162.01 321.585 1161.79 321.79C1161.59 321.986 1161.35 322.084 1161.08 322.084C1160.8 322.084 1160.56 321.967 1160.36 321.734L1157.73 318.514L1155.07 321.734C1154.87 321.967 1154.63 322.084 1154.36 322.084C1154.1 322.084 1153.86 321.986 1153.64 321.79C1153.44 321.585 1153.34 321.347 1153.34 321.076C1153.34 320.843 1153.42 320.628 1153.59 320.432L1156.46 317.016L1153.69 313.698C1153.51 313.493 1153.42 313.278 1153.42 313.054C1153.42 312.783 1153.52 312.55 1153.73 312.354C1153.94 312.149 1154.18 312.046 1154.44 312.046C1154.72 312.046 1154.96 312.167 1155.17 312.41L1157.73 315.504L1160.27 312.41C1160.47 312.167 1160.71 312.046 1160.99 312.046C1161.26 312.046 1161.49 312.149 1161.69 312.354C1161.91 312.55 1162.02 312.783 1162.02 313.054C1162.02 313.287 1161.93 313.502 1161.76 313.698L1158.99 317.016L1161.85 320.432Z" fill="#7A6FD3"/>
<path d="M768.056 202.104C768.157 202.221 768.208 202.344 768.208 202.472C768.208 202.627 768.147 202.763 768.024 202.88C767.907 202.992 767.771 203.048 767.616 203.048C767.456 203.048 767.32 202.981 767.208 202.848L765.704 201.008L764.184 202.848C764.067 202.981 763.931 203.048 763.776 203.048C763.627 203.048 763.491 202.992 763.368 202.88C763.251 202.763 763.192 202.627 763.192 202.472C763.192 202.339 763.24 202.216 763.336 202.104L764.976 200.152L763.392 198.256C763.291 198.139 763.24 198.016 763.24 197.888C763.24 197.733 763.299 197.6 763.416 197.488C763.539 197.371 763.675 197.312 763.824 197.312C763.984 197.312 764.123 197.381 764.24 197.52L765.704 199.288L767.152 197.52C767.269 197.381 767.408 197.312 767.568 197.312C767.717 197.312 767.851 197.371 767.968 197.488C768.091 197.6 768.152 197.733 768.152 197.888C768.152 198.021 768.104 198.144 768.008 198.256L766.424 200.152L768.056 202.104Z" fill="#8A7FE3"/>
<defs>
<linearGradient id="paint0_linear" x1="639" y1="0" x2="639" y2="612" gradientUnits="userSpaceOnUse">
<stop stop-color="#697DED"/>
<stop offset="1" stop-color="#5E30C1"/>
</linearGradient>
</defs>
</svg>
